X:1
T:The London Lasses -- Reel
R:reel
B:Ryan's Mammoth Collection
N:213
N:This sounds better with 2 sharps (one in the book)
Z:Contributed by Ray Davies,  ray:davies99.freeserve.co.uk
M:C|
L:1/8
K:Bphr
ua"^Segno"|\
fBdf fBdf | eA( (3cBA) eA ((3cBA) | fBdf fBdf | ecAc (dB)B2 |
fBdf fBdf | eA((3cBA) eA((3cBA) | dcdB cBAd | ecAc dBB2 :|
|:d2(fd) (ad)(fd) | c2(ec) Acec | d2(fd) (ad)(fd) | ecAc (dB)B2 |
  d2(fd) (ad)(fd) | c2(ec) Acec | defg abaf | ecAc dBB2 \
"^Segno" "_D.S.":|
